X:88
T:Huchage
R:Chanson
O:France
B:Le livre des Chansons (Henri Davenson) n°88
Z:<anamnese@caramail.com> -- http://anamnese.fr.st
N:il n'y a pas de mesure dans les deux premiers titres
L:1/4
Q:1/4=160
K:G
P:1
d6 e3 e e2 e3 e e2 d3 c B2 A3 B2 z2 ||
d6 e3 e e2 e3 e e2 d2-c B A2 HG2 ||
P:2
K:F
BABG c4 c3 BABG2 ||
P:3
K:F
Gd2 cdc4 d2 dd c2 AGF2GFG8 ||
P:4
M:C
L:1/4
K:C
z2 (_Bf/)>(_e/|f2)-f-f/ z/ | z4 | z2 _B^f/>^e/ | ^f2-f-f/ z/ | z4 |
z2 =B g/>(^f/|g4)-|g/ z/ z z2 ||

